X: 1
T: Vagns Skottish
R: shottish
Z: John Chambers <jc:trillian.mit.edu>
N: Efter Vagn Dahl Hansen
N: Efter Bengt Gr\annsj\"o, Mora, Dalarna
M: 4/4
L: 1/8
K: D
|: "D"f>a fd A>F Ad | "G"c2 B2 B2 B2 \
| "A7"e>g ec A2 Bc |1,3 "D"de fg "(A7)"a2 a2 :|2,4 "D"d2 d2 d4 :|[K:A]
|: "A"e2 ee e>f ed | c2 cc c>e dc \
| "E7"B2 BB B>d cB |1,3 "A"Aa gf ed cd :|2,4 "A"A2 c2 A4 :|
